X: 3076
T: Bear Dance, The
R: polka
M: 2/4
K: Aminor
eA A2|eA AB|cc Bc|d2 cd|
ee dd|cc BG|A/B/c BG|A4:|
|:A/B/c A/B/c|BG G2|A/B/c A/B/c|d2 cd|
ee dd|cc BG|A/B/c BG|A4:|

